src/assets/img/svg/doodle2.svg

<svg width="152" height="147" viewBox="0 0 152 147" fill="none" xmlns="http://www.w3.org/2000/svg">
<g clip-path="url(#clip0_103_79)">
<path d="M131.526 146.566C130.752 146.455 130.04 145.915 129.807 145.094C124.931 129.564 109.214 117.772 91.9594 114.552C88.6108 125.052 80.3703 134.194 68.707 134.183C64.631 134.167 61.0096 132.816 58.8434 130.493C55.5418 126.913 55.6662 121.156 59.191 117.068C61.6656 114.186 65.509 112.157 71.0034 110.845C76.817 109.448 82.8697 109.136 88.7748 109.852C88.8548 109.295 88.9838 108.701 89.0208 108.137C91.1738 92.5226 84.825 76.2565 72.4773 65.7353C65.9474 60.2048 57.8087 56.4122 49.3319 54.6708C47.2129 58.7414 44.6827 62.6218 41.8334 66.2813C38.6585 70.3754 34.1391 75.2827 27.5151 77.132C21.2103 78.8958 12.6353 76.9216 9.73969 70.5128C8.5864 67.8538 8.6118 64.9264 9.84645 62.1288C11.898 57.6111 17.2336 53.4333 23.4771 51.4857C30.8686 49.1779 38.9164 48.7141 46.9453 49.9099C53.1675 36.8039 55.4123 22.0771 53.1267 7.7502C52.9428 6.58641 53.7534 5.52157 54.8769 5.3328C56.0432 5.1502 57.1111 5.95964 57.3011 7.08056C59.6479 21.8975 57.4644 37.1142 51.2605 50.7041C60.0504 52.7092 68.4652 56.7164 75.2283 62.4553C88.6746 73.8778 95.6 91.6266 93.244 108.656C93.1579 109.256 93.0779 109.813 92.9918 110.413C111.64 114.008 128.609 126.855 133.859 143.751C134.227 144.853 133.57 146.071 132.471 146.395C132.152 146.48 131.839 146.523 131.538 146.48L131.526 146.566ZM87.6196 113.93C82.3897 113.398 77.0797 113.73 71.9905 114.968C67.4047 116.06 64.2797 117.667 62.4313 119.852C60.6383 121.957 59.962 125.447 61.9749 127.617C63.3433 129.082 65.8046 129.96 68.7021 129.939C77.9099 129.948 84.6829 122.476 87.6626 113.936L87.6196 113.93ZM44.9184 53.95C38.068 53.0982 31.1068 53.6305 24.7282 55.6024C19.6819 57.1531 15.255 60.4988 13.7132 63.9086C12.9393 65.6349 12.9327 67.2088 13.6197 68.8385C15.4847 72.9559 21.8132 74.3889 26.3376 73.1133C31.7339 71.5691 35.6393 67.2736 38.4333 63.6936C40.8467 60.6277 42.9838 57.3471 44.8693 53.9867L44.9184 53.95Z" fill="#3F78E0"/>
</g>
<defs>
<clipPath id="clip0_103_79">
<rect width="135" height="129" fill="white" transform="translate(18.3232) rotate(8.16601)"/>
</clipPath>
</defs>
</svg>

<svg width="152" height="147" viewBox="0 0 152 147" fill="none" xmlns="http://www.w3.org/2000/svg"><g clip-path="url(#clip0_103_79)"><path d="M131.526 146.566c-.774-.111-1.486-.651-1.719-1.472-4.876-15.53-20.593-27.322-37.848-30.542-3.348 10.5-11.589 19.642-23.252 19.631-4.076-.016-7.697-1.367-9.864-3.69-3.301-3.58-3.177-9.337.348-13.425 2.475-2.882 6.318-4.911 11.812-6.223 5.814-1.397 11.867-1.709 17.772-.993.08-.557.209-1.151.246-1.715 2.153-15.614-4.196-31.88-16.544-42.402-6.53-5.53-14.668-9.323-23.145-11.064-2.12 4.07-4.65 7.95-7.499 11.61-3.175 4.094-7.694 9.002-14.318 10.851-6.305 1.764-14.88-.21-17.775-6.62-1.154-2.658-1.128-5.586.106-8.383 2.052-4.518 7.388-8.696 13.631-10.643 7.392-2.308 15.44-2.772 23.468-1.576 6.222-13.106 8.467-27.833 6.182-42.16-.184-1.164.626-2.228 1.75-2.417A2.134 2.134 0 0157.3 7.08c2.347 14.817.163 30.033-6.04 43.623 8.79 2.005 17.204 6.012 23.967 11.751C88.675 73.878 95.6 91.627 93.244 108.656l-.252 1.757c18.648 3.595 35.617 16.442 40.867 33.338.368 1.102-.289 2.32-1.388 2.644-.319.085-.632.128-.933.085l-.012.086zM87.62 113.93c-5.23-.532-10.54-.2-15.63 1.038-4.585 1.092-7.71 2.699-9.559 4.884-1.793 2.105-2.469 5.595-.456 7.765 1.368 1.465 3.83 2.343 6.727 2.322 9.208.009 15.98-7.463 18.96-16.003l-.042-.006zM44.918 53.95c-6.85-.852-13.811-.32-20.19 1.652-5.046 1.551-9.473 4.897-11.015 8.307-.774 1.726-.78 3.3-.093 4.93 1.865 4.117 8.193 5.55 12.718 4.274 5.396-1.544 9.301-5.84 12.095-9.42 2.414-3.065 4.55-6.346 6.436-9.706l.05-.037z" fill="#3F78E0"/></g><defs><clipPath id="clip0_103_79"><path fill="#fff" transform="rotate(8.166 9.162 128.345)" d="M0 0h135v129H0z"/></clipPath></defs></svg>
